X:1
T:Title
%%score { ( 1 3 ) | ( 2 4 ) }
L:1/8
M:4/4
K:C
V:1 treble nm="Grand Piano"
V:3 treble 
V:2 treble 
V:4 treble 
V:1
 z4 z2[Q:1/4=100] E>F | G2 G2 A2 G2 | c6[K:bass][K:treble] z2 | G2 G2 A2 G2 | %4
 c6[K:bass][K:treble] z2 | d2 c2 B2 D>E | F2 E2 D2 B>A | G2 [FA]>[EG] [DF]2 [EG]>F | E6 E>F | %9
 G2 G2 A2 G2 | c6[K:bass][K:treble] z2 | G2 G2 A2 G2 | c6[K:bass][K:treble] z2 | d2 c2 B2 A>[GB] | %14
 [Gc]2 G2 E2 D>E | F2 G2 [FB]2 [B,FG]2 |[M:3/4] [CEc]6 |[M:1/4] B>c |[M:4/4] [Fd]6 z2 | c6 z2 | %20
 [B,DF]2 D2 B2 A>A | G2 D2 D2 B>c | [Fd]6 z2 | c6 z2 | [B,DF]2 [DFd]2 B2 A>B |[M:3/4] [Ec]6 |] %26
V:2
 z4 z2 C>[CD] | [CE]2 [CE]2 [CF]2 [CE]2 | [CE]6 C>[CD] | [CE]2 [CE]2 [CF]2 [CE]2 | %4
 [CE]6 [G,DG]>[G,EG] | [B,FG]2 [CEG]2 [G,DG]2[K:bass] [F,G,B,]>[E,G,C] | %6
 [D,G,B,]2 [C,G,C]2 [G,B,]2[K:treble] [G,D]>[G,B,F] | [CE]2[K:bass] [D,C]>[D,B,] [F,A,]2 z z/ D/ | %8
 [C,G,C]6[K:treble] C>[CD] | [CE]2 [CE]2 [CF]2 [CE]2 | [CE]6 C>[CD] | [CE]2 [CE]2 [CF]2 [CE]2 | %12
 [CE]6 [G,DG]>[G,EG] | [B,FG]2 [CEG]2 [G,DG]2[K:bass] [F,D]>[F,D] | %14
 [E,C]2 [G,B,D]2 [C,C]2 [G,B,]>[G,C] | [F,G,D]2 [E,G,E]2 [D,G,]2 G,2 |[M:3/4] C,6 | %17
[M:1/4][K:treble] G>A |[M:4/4] B,2 G,2 B,2 [G,B,F]2 | [CE]2[K:bass] G,2 C2 G,>G, | %20
 G,,2 B,,2 [D,G,D]2 [F,A,D]>[F,B,D] | [E,CE]2 [^F,A,C]2 [G,B,]2[K:treble] G>A | %22
 B,2 G,2 B,2 [G,B,F]2 | [CE]2[K:bass] G,2 C2 G,>G, | G,,2 B,,2 [D,G,D]2[K:treble] [G,F]>[G,F] | %25
[M:3/4][K:bass] [C,G,]6 |] %26
V:3
 x8 | x8 | z2[K:bass] G,>E, C,2[K:treble] E>F | x8 | z2[K:bass] G,>E, C,2[K:treble] B>c | x8 | x8 | %7
 x8 | x8 | x8 | z2[K:bass] G,>E, C,2[K:treble] E>F | x8 | z2[K:bass] G,>E, C,2[K:treble] B>c | x8 | %14
 x8 | x8 |[M:3/4] x6 |[M:1/4] x2 |[M:4/4] D2 B,2 D2 A>G | z2 C2 E2 [B,D]>[CE] | x8 | x8 | %22
 D2 B,2 D2 A>G | z2 C2 E2 [B,D]>[CE] | x8 |[M:3/4] x6 |] %26
V:4
 x8 | x8 | x8 | x8 | x8 | x6[K:bass] x2 | x6[K:treble] x2 | z4[K:bass] z2 [B,,G,]2 | %8
 x6[K:treble] x2 | x8 | x8 | x8 | x8 | x6[K:bass] x2 | x8 | x8 |[M:3/4] x6 |[M:1/4][K:treble] x2 | %18
[M:4/4] x8 | x2[K:bass] x6 | x8 | x6[K:treble] x2 | x8 | x2[K:bass] x6 | x6[K:treble] x2 | %25
[M:3/4][K:bass] x6 |] %26

